svgs/sharp-duotone-thin/bolt-lightning.svg

<svg xmlns="http://www.w3.org/2000/svg" viewBox="0 0 384 512"><!--! Font Awesome Pro 7.1.0 by @fontawesome - https://fontawesome.com License - https://fontawesome.com/license (Commercial License) Copyright 2025 Fonticons, Inc. --><path opacity=".4" fill="currentColor" d="M17.9 272l177.9 0-4.1 19.4-34.6 161.3 210.9-250.5 0-26.2-163.5 0 3.8-19.1 28.2-140.9-190.2 0-28.4 256z"/><path fill="currentColor" d="M227.2 144l25.6-128 3.2-16-224 0-30.2 272-1.8 16 176 0-3.4 16-37.4 174.7-7.1 33.3 21.9-26.1 234.1-277.9 0-48-160 0 3.2-16zM368 176l0 26.2-210.9 250.5 34.6-161.3 4.1-19.4-177.9 0 28.4-256 190.2 0-28.2 140.9-3.8 19.1 163.5 0z"/></svg>

<svg xmlns="http://www.w3.org/2000/svg" viewBox="0 0 384 512"><!--! Font Awesome Pro 6.7.2 by @fontawesome - https://fontawesome.com License - https://fontawesome.com/license (Commercial License) Copyright 2024 Fonticons, Inc. --><defs><style>.fa-secondary{opacity:.4}</style></defs><path class="fa-secondary" d="M17.9 272L176 272l19.8 0-4.1 19.4L157.1 452.6 368 202.2l0-26.2-144 0-19.5 0 3.8-19.1L236.5 16 46.3 16 17.9 272z"/><path class="fa-primary" d="M227.2 144L252.8 16 256 0 239.7 0 32 0 1.8 272 0 288l16.1 0 143.5 0 16.4 0-3.4 16L135.1 478.7 128 512l21.9-26.1L384 208l0-32 0-16-16 0-127.7 0L224 160l3.2-16zM368 176l0 26.2L157.1 452.6l34.6-161.3 4.1-19.4L176 272 17.9 272 46.3 16l190.2 0L208.3 156.9 204.5 176l19.5 0 144 0z"/></svg>
